storage/app/icons/phosphoricons/regular/car-profile.svg

<svg xmlns="http://www.w3.org/2000/svg" fill="currentColor" viewBox="0 0 256 256"><path d="M240 112h-28.69L168 68.69A15.86 15.86 0 0 0 156.69 64H44.28A16 16 0 0 0 31 71.12L1.34 115.56A8.07 8.07 0 0 0 0 120v48a16 16 0 0 0 16 16h17a32 32 0 0 0 62 0h66a32 32 0 0 0 62 0h17a16 16 0 0 0 16-16v-40a16 16 0 0 0-16-16M44.28 80h112.41l32 32H23ZM64 192a16 16 0 1 1 16-16 16 16 0 0 1-16 16m128 0a16 16 0 1 1 16-16 16 16 0 0 1-16 16m48-24h-17a32 32 0 0 0-62 0H95a32 32 0 0 0-62 0H16v-40h224Z"/></svg>

<svg xmlns="http://www.w3.org/2000/svg" viewBox="0 0 256 256" fill="currentColor"><path d="M240,112H211.31L168,68.69A15.86,15.86,0,0,0,156.69,64H44.28A16,16,0,0,0,31,71.12L1.34,115.56A8.07,8.07,0,0,0,0,120v48a16,16,0,0,0,16,16H33a32,32,0,0,0,62,0h66a32,32,0,0,0,62,0h17a16,16,0,0,0,16-16V128A16,16,0,0,0,240,112ZM44.28,80H156.69l32,32H23ZM64,192a16,16,0,1,1,16-16A16,16,0,0,1,64,192Zm128,0a16,16,0,1,1,16-16A16,16,0,0,1,192,192Zm48-24H223a32,32,0,0,0-62,0H95a32,32,0,0,0-62,0H16V128H240Z"/></svg>
